static/img/kroki/93c4efcb4b255f349a58760f53198395.svg

<?xml version="1.0" encoding="us-ascii" standalone="no"?><svg xmlns="http://www.w3.org/2000/svg" xmlns:xlink="http://www.w3.org/1999/xlink" contentStyleType="text/css" height="374px" preserveAspectRatio="none" style="width:297px;height:374px;" version="1.1" viewBox="0 0 297 374" width="297px" zoomAndPan="magnify"><defs/><g><!--class bucket--><g id="elem_bucket"><rect codeLine="23" fill="#3D176E" height="39.7891" id="bucket" rx="2.5" ry="2.5" style="stroke:#000D19;stroke-width:0.5;" width="98" x="7" y="167.79"/><ellipse cx="22" cy="187.6845" fill="#ADD1B2" rx="11" ry="11" style="stroke:#181818;stroke-width:1.0;"/><path d="M24.9688,193.3252 Q24.3906,193.622 23.75,193.7627 Q23.1094,193.9189 22.4063,193.9189 Q19.9063,193.9189 18.5781,192.2783 Q17.2656,190.622 17.2656,187.497 Q17.2656,184.372 18.5781,182.7158 Q19.9063,181.0595 22.4063,181.0595 Q23.1094,181.0595 23.75,181.2158 Q24.4063,181.372 24.9688,181.6689 L24.9688,184.3877 Q24.3438,183.8095 23.75,183.5439 Q23.1563,183.2627 22.5313,183.2627 Q21.1875,183.2627 20.5,184.3408 Q19.8125,185.4033 19.8125,187.497 Q19.8125,189.5908 20.5,190.6689 Q21.1875,191.7314 22.5313,191.7314 Q23.1563,191.7314 23.75,191.4658 Q24.3438,191.1845 24.9688,190.6064 L24.9688,193.3252 Z " fill="#000000"/><text fill="#D9B8FF" font-family="Helvetica" font-size="17" lengthAdjust="spacing" textLength="56" x="41" y="193.5698">bucket</text></g><!--class gcp_bucket--><g id="elem_gcp_bucket"><rect codeLine="26" fill="#3D176E" height="39.7891" id="gcp_bucket" rx="2.5" ry="2.5" style="stroke:#000D19;stroke-width:0.5;" width="135" x="67.5" y="328.58"/><ellipse cx="82.5" cy="348.4745" fill="#ADD1B2" rx="11" ry="11" style="stroke:#181818;stroke-width:1.0;"/><path d="M85.4688,354.1152 Q84.8906,354.412 84.25,354.5527 Q83.6094,354.7089 82.9063,354.7089 Q80.4063,354.7089 79.0781,353.0683 Q77.7656,351.412 77.7656,348.287 Q77.7656,345.162 79.0781,343.5058 Q80.4063,341.8495 82.9063,341.8495 Q83.6094,341.8495 84.25,342.0058 Q84.9063,342.162 85.4688,342.4589 L85.4688,345.1777 Q84.8438,344.5995 84.25,344.3339 Q83.6563,344.0527 83.0313,344.0527 Q81.6875,344.0527 81,345.1308 Q80.3125,346.1933 80.3125,348.287 Q80.3125,350.3808 81,351.4589 Q81.6875,352.5214 83.0313,352.5214 Q83.6563,352.5214 84.25,352.2558 Q84.8438,351.9745 85.4688,351.3964 L85.4688,354.1152 Z " fill="#000000"/><text fill="#D9B8FF" font-family="Helvetica" font-size="17" lengthAdjust="spacing" textLength="93" x="101.5" y="354.3598">gcp_bucket</text></g><!--class gcp_resource--><g id="elem_gcp_resource"><rect codeLine="29" fill="#3D176E" height="39.7891" id="gcp_resource" rx="2.5" ry="2.5" style="stroke:#000D19;stroke-width:0.5;" width="150" x="140" y="167.79"/><ellipse cx="155" cy="187.6845" fill="#ADD1B2" rx="11" ry="11" style="stroke:#181818;stroke-width:1.0;"/><path d="M157.9688,193.3252 Q157.3906,193.622 156.75,193.7627 Q156.1094,193.9189 155.4063,193.9189 Q152.9063,193.9189 151.5781,192.2783 Q150.2656,190.622 150.2656,187.497 Q150.2656,184.372 151.5781,182.7158 Q152.9063,181.0595 155.4063,181.0595 Q156.1094,181.0595 156.75,181.2158 Q157.4063,181.372 157.9688,181.6689 L157.9688,184.3877 Q157.3438,183.8095 156.75,183.5439 Q156.1563,183.2627 155.5313,183.2627 Q154.1875,183.2627 153.5,184.3408 Q152.8125,185.4033 152.8125,187.497 Q152.8125,189.5908 153.5,190.6689 Q154.1875,191.7314 155.5313,191.7314 Q156.1563,191.7314 156.75,191.4658 Q157.3438,191.1845 157.9688,190.6064 L157.9688,193.3252 Z " fill="#000000"/><text fill="#D9B8FF" font-family="Helvetica" font-size="17" lengthAdjust="spacing" textLength="108" x="174" y="193.5698">gcp_resource</text></g><!--class resource--><g id="elem_resource"><rect codeLine="32" fill="#3D176E" height="39.7891" id="resource" rx="2.5" ry="2.5" style="stroke:#000D19;stroke-width:0.5;" width="113" x="78.5" y="7"/><ellipse cx="93.5" cy="26.8945" fill="#ADD1B2" rx="11" ry="11" style="stroke:#181818;stroke-width:1.0;"/><path d="M96.4688,32.5352 Q95.8906,32.832 95.25,32.9727 Q94.6094,33.1289 93.9063,33.1289 Q91.4063,33.1289 90.0781,31.4883 Q88.7656,29.832 88.7656,26.707 Q88.7656,23.582 90.0781,21.9258 Q91.4063,20.2695 93.9063,20.2695 Q94.6094,20.2695 95.25,20.4258 Q95.9063,20.582 96.4688,20.8789 L96.4688,23.5977 Q95.8438,23.0195 95.25,22.7539 Q94.6563,22.4727 94.0313,22.4727 Q92.6875,22.4727 92,23.5508 Q91.3125,24.6133 91.3125,26.707 Q91.3125,28.8008 92,29.8789 Q92.6875,30.9414 94.0313,30.9414 Q94.6563,30.9414 95.25,30.6758 Q95.8438,30.3945 96.4688,29.8164 L96.4688,32.5352 Z " fill="#000000"/><text fill="#D9B8FF" font-family="Helvetica" font-size="17" lengthAdjust="spacing" textLength="71" x="112.5" y="32.7798">resource</text></g><!--reverse link resource to bucket--><g id="link_resource_bucket"><path codeLine="35" d="M117.454,63.1666 C102.274,93.6866 80.77,136.9 65.56,167.46 " fill="none" id="resource-backto-bucket" style="stroke:#FFAF37;stroke-width:2.0;"/><polygon fill="none" points="125.47,47.05,112.0818,60.4945,122.8262,65.8386,125.47,47.05" style="stroke:#FFAF37;stroke-width:2.0;"/></g><!--reverse link bucket to gcp_bucket--><g id="link_bucket_gcp_bucket"><path codeLine="36" d="M73.546,223.9566 C88.726,254.4766 110.23,297.69 125.44,328.25 " fill="none" id="bucket-backto-gcp_bucket" style="stroke:#FFAF37;stroke-width:2.0;"/><polygon fill="none" points="65.53,207.84,68.1738,226.6286,78.9182,221.2845,65.53,207.84" style="stroke:#FFAF37;stroke-width:2.0;"/></g><!--reverse link gcp_resource to gcp_bucket--><g id="link_gcp_resource_gcp_bucket"><path codeLine="37" d="M197.2496,223.9143 C181.8696,254.4343 160.08,297.69 144.68,328.25 " fill="none" id="gcp_resource-backto-gcp_bucket" style="stroke:#FFAF37;stroke-width:2.0;"/><polygon fill="none" points="205.35,207.84,191.8915,221.2142,202.6077,226.6145,205.35,207.84" style="stroke:#FFAF37;stroke-width:2.0;"/></g><!--reverse link resource to gcp_resource--><g id="link_resource_gcp_resource"><path codeLine="38" d="M152.7504,63.1243 C168.1304,93.6443 189.92,136.9 205.32,167.46 " fill="none" id="resource-backto-gcp_resource" style="stroke:#FFAF37;stroke-width:2.0;"/><polygon fill="none" points="144.65,47.05,147.3923,65.8245,158.1085,60.4242,144.65,47.05" style="stroke:#FFAF37;stroke-width:2.0;"/></g><!--SRC=[XP1BJyCm48Jl_XMMUewKK45QYKjR2S6bGfGxSknrOYMnexL3LHx_7KBJuiHz77Vcq-pi5ae0XRfnErf3dG5QOakb6uQifWj4irsPoY2TICdaD1sR3qQxgy2QrK0VeNe7fpWR4w-5ugK6Q-cDPoqPBtCqhHRxU8TCsryBjFEeLSMiNJY7AciTU6N4F9j9EIR7ePEfID8x23230h17uZWMoNoCN5rryUuZiL4VG1F_QMlZ8AWPhFYZBhRi2AzaSEZ1FzlncGcXT4vlFUrbtmaru43V54oORKTBLbb_ZNM0ODokWLLm5SndGgOduQTpCE7TwsZMyX8S_IJakrTothoTLX6iQP63hm-rutJ_5KLH7qxwjBts7qy6cO5xmZb8v0S0]--></g></svg>

<svg xmlns="http://www.w3.org/2000/svg" width="297" height="374" viewBox="0 0 297 374"><rect width="98" height="39.789" x="7" y="167.79" fill="#3D176E" rx="2.5" ry="2.5" style="stroke:#000d19;stroke-width:.5"/><circle cx="22" cy="187.685" r="11" fill="#ADD1B2" style="stroke:#181818;stroke-width:1"/><path d="M24.969 193.325q-.578.297-1.219.438-.64.156-1.344.156-2.5 0-3.828-1.64-1.312-1.657-1.312-4.782t1.312-4.781q1.328-1.656 3.828-1.656.703 0 1.344.156.656.156 1.219.453v2.719q-.625-.578-1.219-.844-.594-.281-1.219-.281-1.343 0-2.031 1.078-.687 1.062-.687 3.156t.687 3.172q.688 1.062 2.031 1.062.625 0 1.219-.265.594-.281 1.219-.86z"/><text x="41" y="193.57" fill="#D9B8FF" font-family="Helvetica" font-size="17" textLength="56">bucket</text><rect width="135" height="39.789" x="67.5" y="328.58" fill="#3D176E" rx="2.5" ry="2.5" style="stroke:#000d19;stroke-width:.5"/><circle cx="82.5" cy="348.474" r="11" fill="#ADD1B2" style="stroke:#181818;stroke-width:1"/><path d="M85.469 354.115q-.578.297-1.219.438-.64.156-1.344.156-2.5 0-3.828-1.64-1.312-1.657-1.312-4.782t1.312-4.781q1.328-1.656 3.828-1.656.703 0 1.344.156.656.156 1.219.453v2.719q-.625-.579-1.219-.844-.594-.281-1.219-.281-1.344 0-2.031 1.078-.687 1.062-.687 3.156t.687 3.172q.688 1.062 2.031 1.062.625 0 1.219-.265.594-.281 1.219-.86z"/><text x="101.5" y="354.36" fill="#D9B8FF" font-family="Helvetica" font-size="17" textLength="93">gcp_bucket</text><rect width="150" height="39.789" x="140" y="167.79" fill="#3D176E" rx="2.5" ry="2.5" style="stroke:#000d19;stroke-width:.5"/><circle cx="155" cy="187.685" r="11" fill="#ADD1B2" style="stroke:#181818;stroke-width:1"/><path d="M157.969 193.325q-.578.297-1.219.438-.64.156-1.344.156-2.5 0-3.828-1.64-1.312-1.657-1.312-4.782t1.312-4.781q1.328-1.656 3.828-1.656.703 0 1.344.156.656.156 1.219.453v2.719q-.625-.578-1.219-.844-.594-.281-1.219-.281-1.344 0-2.031 1.078-.687 1.062-.687 3.156t.687 3.172q.688 1.062 2.031 1.062.625 0 1.219-.265.594-.281 1.219-.86z"/><text x="174" y="193.57" fill="#D9B8FF" font-family="Helvetica" font-size="17" textLength="108">gcp_resource</text><rect width="113" height="39.789" x="78.5" y="7" fill="#3D176E" rx="2.5" ry="2.5" style="stroke:#000d19;stroke-width:.5"/><circle cx="93.5" cy="26.895" r="11" fill="#ADD1B2" style="stroke:#181818;stroke-width:1"/><path d="M96.469 32.535q-.578.297-1.219.438-.64.156-1.344.156-2.5 0-3.828-1.64-1.312-1.657-1.312-4.782t1.312-4.781q1.328-1.656 3.828-1.656.703 0 1.344.156.656.156 1.219.453v2.719q-.625-.578-1.219-.844-.594-.281-1.219-.281-1.344 0-2.031 1.078-.687 1.062-.687 3.156T92 29.879q.688 1.062 2.031 1.062.625 0 1.219-.265.594-.281 1.219-.86z"/><text x="112.5" y="32.78" fill="#D9B8FF" font-family="Helvetica" font-size="17" textLength="71">resource</text><path fill="none" d="M117.454 63.167A500389 500389 0 0 1 65.56 167.46m59.91-120.41-13.388 13.445 10.744 5.344z" style="stroke:#ffaf37;stroke-width:2"/><g fill="none"><path d="M73.546 223.957c15.18 30.52 36.684 73.733 51.894 104.293" style="stroke:#ffaf37;stroke-width:2"/><path d="m65.53 207.84 2.644 18.789 10.744-5.344z" style="stroke:#ffaf37;stroke-width:2"/></g><g fill="none"><path d="M197.25 223.914c-15.38 30.52-37.17 73.776-52.57 104.336" style="stroke:#ffaf37;stroke-width:2"/><path d="m205.35 207.84-13.458 13.374 10.716 5.4z" style="stroke:#ffaf37;stroke-width:2"/></g><g fill="none"><path d="M152.75 63.124c15.38 30.52 37.17 73.776 52.57 104.336" style="stroke:#ffaf37;stroke-width:2"/><path d="m144.65 47.05 2.742 18.775 10.716-5.4z" style="stroke:#ffaf37;stroke-width:2"/></g></svg>
